src/assets/images/icons/sunrise.svg

<svg width="24" height="24" viewBox="0 0 24 24" fill="none" xmlns="http://www.w3.org/2000/svg">
<path d="M17 18C17 16.6739 16.4732 15.4021 15.5355 14.4645C14.5979 13.5268 13.3261 13 12 13C10.6739 13 9.40215 13.5268 8.46447 14.4645C7.52678 15.4021 7 16.6739 7 18M12 2V9M12 2L8 6M12 2L16 6M4.22 10.22L5.64 11.64M1 18H3M21 18H23M18.36 11.64L19.78 10.22M23 22H1" stroke="#181D27" stroke-width="2" stroke-linecap="round" stroke-linejoin="round"/>
</svg>

<svg xmlns="http://www.w3.org/2000/svg" fill="none" viewBox="0 0 24 24"><path stroke="#181D27" stroke-linecap="round" stroke-linejoin="round" stroke-width="2" d="M17 18a5 5 0 1 0-10 0m5-16v7m0-7L8 6m4-4 4 4M4.22 10.22l1.42 1.42M1 18h2m18 0h2m-4.64-6.36 1.42-1.42M23 22H1"/></svg>
